TileServer und Tiles/svg/9/98_29.svg

<?xml version='1.0' encoding='UTF-8' standalone='no'?>
<svg xmlns="http://www.w3.org/2000/svg" width="497pt" viewBox="0 0 497 279" xmlns:xlink="http://www.w3.org/1999/xlink" height="279pt">
 <defs style="stroke:none;" overflow="visible">
  <path id="glyph0-7" d="M 0.484375 0 L 2.296875 -8.5625 L 3.375 -8.5625 L 1.75 -0.953125 L 5.046875 -0.953125 L 4.84375 0 Z M 0.484375 0 "/>
  <path id="glyph0-6" d=""/>
  <path id="glyph0-5" d="M 0.34375 0 L 1.703125 -6.4375 L 2.5625 -6.4375 L 2.4375 -5.25 L 2.5 -5.25 C 2.664062 -5.46875 2.835938 -5.675781 3.015625 -5.875 C 3.203125 -6.070312 3.410156 -6.234375 3.640625 -6.359375 C 3.878906 -6.484375 4.148438 -6.546875 4.453125 -6.546875 C 4.566406 -6.546875 4.679688 -6.539062 4.796875 -6.53125 C 4.921875 -6.519531 5.035156 -6.5 5.140625 -6.46875 L 4.921875 -5.515625 C 4.703125 -5.566406 4.5 -5.59375 4.3125 -5.59375 C 3.90625 -5.59375 3.546875 -5.457031 3.234375 -5.1875 C 2.921875 -4.925781 2.660156 -4.59375 2.453125 -4.1875 C 2.242188 -3.78125 2.097656 -3.363281 2.015625 -2.9375 L 1.390625 0 Z M 0.34375 0 "/>
  <path id="glyph0-4" d="M 2.90625 0.125 C 2.15625 0.125 1.578125 -0.09375 1.171875 -0.53125 C 0.773438 -0.96875 0.578125 -1.554688 0.578125 -2.296875 C 0.578125 -2.816406 0.648438 -3.328125 0.796875 -3.828125 C 0.941406 -4.328125 1.15625 -4.78125 1.4375 -5.1875 C 1.71875 -5.601562 2.054688 -5.929688 2.453125 -6.171875 C 2.847656 -6.421875 3.296875 -6.546875 3.796875 -6.546875 C 4.398438 -6.546875 4.851562 -6.414062 5.15625 -6.15625 C 5.46875 -5.894531 5.625 -5.523438 5.625 -5.046875 C 5.625 -4.628906 5.492188 -4.25 5.234375 -3.90625 C 4.972656 -3.5625 4.566406 -3.285156 4.015625 -3.078125 C 3.460938 -2.878906 2.75 -2.78125 1.875 -2.78125 L 1.671875 -2.78125 C 1.660156 -2.707031 1.648438 -2.628906 1.640625 -2.546875 C 1.640625 -2.472656 1.640625 -2.40625 1.640625 -2.34375 C 1.640625 -1.851562 1.757812 -1.460938 2 -1.171875 C 2.238281 -0.890625 2.601562 -0.75 3.09375 -0.75 C 3.394531 -0.75 3.679688 -0.789062 3.953125 -0.875 C 4.234375 -0.96875 4.53125 -1.09375 4.84375 -1.25 L 4.84375 -0.34375 C 4.539062 -0.207031 4.242188 -0.09375 3.953125 0 C 3.660156 0.0820312 3.3125 0.125 2.90625 0.125 Z M 1.828125 -3.640625 L 1.90625 -3.640625 C 2.382812 -3.640625 2.828125 -3.679688 3.234375 -3.765625 C 3.648438 -3.847656 3.976562 -3.984375 4.21875 -4.171875 C 4.46875 -4.367188 4.59375 -4.632812 4.59375 -4.96875 C 4.59375 -5.175781 4.519531 -5.34375 4.375 -5.46875 C 4.238281 -5.601562 4.023438 -5.671875 3.734375 -5.671875 C 3.347656 -5.671875 2.976562 -5.492188 2.625 -5.140625 C 2.269531 -4.785156 2.003906 -4.285156 1.828125 -3.640625 Z M 1.828125 -3.640625 "/>
  <path id="glyph0-3" d="M 0.328125 0 L 2.25 -9.125 L 3.328125 -9.125 L 2.546875 -5.5 C 2.410156 -4.851562 2.289062 -4.351562 2.1875 -4 C 2.09375 -3.65625 2.023438 -3.429688 1.984375 -3.328125 L 2 -3.328125 L 5.046875 -6.4375 L 6.296875 -6.4375 L 3.546875 -3.671875 L 5.25 0 L 4.09375 0 L 2.734375 -3.015625 L 1.875 -2.328125 L 1.390625 0 Z M 0.328125 0 "/>
  <path id="glyph0-2" d="M 2.3125 0.125 C 1.800781 0.125 1.382812 -0.0625 1.0625 -0.4375 C 0.738281 -0.8125 0.578125 -1.359375 0.578125 -2.078125 C 0.578125 -2.671875 0.65625 -3.238281 0.8125 -3.78125 C 0.96875 -4.320312 1.1875 -4.796875 1.46875 -5.203125 C 1.75 -5.617188 2.078125 -5.945312 2.453125 -6.1875 C 2.835938 -6.425781 3.265625 -6.546875 3.734375 -6.546875 C 4.160156 -6.546875 4.503906 -6.429688 4.765625 -6.203125 C 5.023438 -5.984375 5.222656 -5.726562 5.359375 -5.4375 L 5.40625 -5.4375 L 5.796875 -6.4375 L 6.59375 -6.4375 L 5.234375 0 L 4.390625 0 L 4.546875 -1.1875 L 4.5 -1.1875 C 4.226562 -0.832031 3.90625 -0.523438 3.53125 -0.265625 C 3.164062 -0.00390625 2.757812 0.125 2.3125 0.125 Z M 2.65625 -0.75 C 2.957031 -0.75 3.25 -0.859375 3.53125 -1.078125 C 3.8125 -1.296875 4.066406 -1.585938 4.296875 -1.953125 C 4.523438 -2.328125 4.707031 -2.738281 4.84375 -3.1875 C 4.90625 -3.425781 4.941406 -3.640625 4.953125 -3.828125 C 4.972656 -4.023438 4.984375 -4.207031 4.984375 -4.375 C 4.984375 -4.75 4.878906 -5.054688 4.671875 -5.296875 C 4.472656 -5.535156 4.195312 -5.65625 3.84375 -5.65625 C 3.53125 -5.65625 3.238281 -5.554688 2.96875 -5.359375 C 2.707031 -5.171875 2.476562 -4.90625 2.28125 -4.5625 C 2.082031 -4.226562 1.925781 -3.84375 1.8125 -3.40625 C 1.707031 -2.976562 1.65625 -2.523438 1.65625 -2.046875 C 1.65625 -1.617188 1.742188 -1.296875 1.921875 -1.078125 C 2.097656 -0.859375 2.34375 -0.75 2.65625 -0.75 Z M 2.65625 -0.75 "/>
  <path id="glyph0-1" d="M 0.484375 0 L 2.296875 -8.5625 L 4.53125 -8.5625 C 5.320312 -8.5625 5.941406 -8.40625 6.390625 -8.09375 C 6.835938 -7.78125 7.0625 -7.28125 7.0625 -6.59375 C 7.0625 -6.007812 6.882812 -5.535156 6.53125 -5.171875 C 6.1875 -4.804688 5.722656 -4.570312 5.140625 -4.46875 L 5.140625 -4.40625 C 5.523438 -4.300781 5.847656 -4.101562 6.109375 -3.8125 C 6.378906 -3.53125 6.515625 -3.144531 6.515625 -2.65625 C 6.515625 -2.070312 6.367188 -1.582031 6.078125 -1.1875 C 5.796875 -0.789062 5.410156 -0.492188 4.921875 -0.296875 C 4.429688 -0.0976562 3.867188 0 3.234375 0 Z M 2.609375 -4.921875 L 4.015625 -4.921875 C 4.367188 -4.921875 4.691406 -4.972656 4.984375 -5.078125 C 5.273438 -5.191406 5.507812 -5.363281 5.6875 -5.59375 C 5.863281 -5.820312 5.953125 -6.113281 5.953125 -6.46875 C 5.953125 -6.84375 5.832031 -7.128906 5.59375 -7.328125 C 5.351562 -7.535156 4.953125 -7.640625 4.390625 -7.640625 L 3.1875 -7.640625 Z M 1.75 -0.90625 L 3.265625 -0.90625 C 3.941406 -0.90625 4.460938 -1.054688 4.828125 -1.359375 C 5.203125 -1.671875 5.390625 -2.101562 5.390625 -2.65625 C 5.390625 -3.039062 5.265625 -3.363281 5.015625 -3.625 C 4.765625 -3.894531 4.34375 -4.03125 3.75 -4.03125 L 2.40625 -4.03125 Z M 1.75 -0.90625 "/>
  <path id="glyph0-0" d="M 1.125 0 L 1.125 -8.5625 L 6.0625 -8.5625 L 6.0625 0 Z M 1.734375 -0.609375 L 5.453125 -0.609375 L 5.453125 -7.953125 L 1.734375 -7.953125 Z M 1.734375 -0.609375 "/>
 </defs>
 <image width="497" xlink:href="svg/9/98_29.jpg" height="279"/>
 <g>
  <path d="M 139.0625 21.480469 L 140.875 12.917969 L 143.109375 12.917969 C 143.898438 12.917969 144.519531 13.074219 144.96875 13.386719 C 145.414062 13.699219 145.640625 14.199219 145.640625 14.886719 C 145.640625 15.472656 145.460938 15.945312 145.109375 16.308594 C 144.765625 16.675781 144.300781 16.910156 143.71875 17.011719 L 143.71875 17.074219 C 144.101562 17.179688 144.425781 17.378906 144.6875 17.667969 C 144.957031 17.949219 145.09375 18.335938 145.09375 18.824219 C 145.09375 19.410156 144.945312 19.898438 144.65625 20.292969 C 144.375 20.691406 143.988281 20.988281 143.5 21.183594 C 143.007812 21.382812 142.445312 21.480469 141.8125 21.480469 Z M 141.1875 16.558594 L 142.59375 16.558594 C 142.945312 16.558594 143.269531 16.507812 143.5625 16.402344 C 143.851562 16.289062 144.085938 16.117188 144.265625 15.886719 C 144.441406 15.660156 144.53125 15.367188 144.53125 15.011719 C 144.53125 14.636719 144.410156 14.351562 144.171875 14.152344 C 143.929688 13.945312 143.53125 13.839844 142.96875 13.839844 L 141.765625 13.839844 Z M 140.328125 20.574219 L 141.84375 20.574219 C 142.519531 20.574219 143.039062 20.425781 143.40625 20.121094 C 143.78125 19.808594 143.96875 19.378906 143.96875 18.824219 C 143.96875 18.441406 143.84375 18.117188 143.59375 17.855469 C 143.34375 17.585938 142.921875 17.449219 142.328125 17.449219 L 140.984375 17.449219 Z M 140.328125 20.574219 " transform=" rotate(  340 168.104 18.4822) " style="fill:none;stroke-width:2;stroke-linecap:butt;stroke-linejoin:round;stroke:rgb(100%,100%,100%);stroke-opacity:0.6;stroke-miterlimit:10;"/>
  <path d="M 148.089844 21.605469 C 147.578125 21.605469 147.160156 21.417969 146.839844 21.042969 C 146.515625 20.667969 146.355469 20.121094 146.355469 19.402344 C 146.355469 18.808594 146.433594 18.242188 146.589844 17.699219 C 146.746094 17.160156 146.964844 16.683594 147.246094 16.277344 C 147.527344 15.863281 147.855469 15.535156 148.230469 15.292969 C 148.613281 15.054688 149.042969 14.933594 149.511719 14.933594 C 149.9375 14.933594 150.28125 15.050781 150.542969 15.277344 C 150.800781 15.496094 151 15.753906 151.136719 16.042969 L 151.183594 16.042969 L 151.574219 15.042969 L 152.371094 15.042969 L 151.011719 21.480469 L 150.167969 21.480469 L 150.324219 20.292969 L 150.277344 20.292969 C 150.003906 20.648438 149.683594 20.957031 149.308594 21.214844 C 148.941406 21.476562 148.535156 21.605469 148.089844 21.605469 Z M 148.433594 20.730469 C 148.734375 20.730469 149.027344 20.621094 149.308594 20.402344 C 149.589844 20.183594 149.84375 19.894531 150.074219 19.527344 C 150.300781 19.152344 150.484375 18.742188 150.621094 18.292969 C 150.683594 18.054688 150.71875 17.839844 150.730469 17.652344 C 150.75 17.457031 150.761719 17.273438 150.761719 17.105469 C 150.761719 16.730469 150.65625 16.425781 150.449219 16.183594 C 150.25 15.945312 149.972656 15.824219 149.621094 15.824219 C 149.308594 15.824219 149.015625 15.925781 148.746094 16.121094 C 148.484375 16.308594 148.253906 16.574219 148.058594 16.917969 C 147.859375 17.253906 147.703125 17.636719 147.589844 18.074219 C 147.484375 18.503906 147.433594 18.957031 147.433594 19.433594 C 147.433594 19.863281 147.519531 20.183594 147.699219 20.402344 C 147.875 20.621094 148.121094 20.730469 148.433594 20.730469 Z M 148.433594 20.730469 " transform=" rotate(  340 168.104 18.4822) " style="fill:none;stroke-width:2;stroke-linecap:butt;stroke-linejoin:round;stroke:rgb(100%,100%,100%);stroke-opacity:0.6;stroke-miterlimit:10;"/>
  <path d="M 152.921875 21.480469 L 154.84375 12.355469 L 155.921875 12.355469 L 155.140625 15.980469 C 155.003906 16.628906 154.882812 17.128906 154.78125 17.480469 C 154.6875 17.824219 154.617188 18.050781 154.578125 18.152344 L 154.59375 18.152344 L 157.640625 15.042969 L 158.890625 15.042969 L 156.140625 17.808594 L 157.84375 21.480469 L 156.6875 21.480469 L 155.328125 18.464844 L 154.46875 19.152344 L 153.984375 21.480469 Z M 152.921875 21.480469 " transform=" rotate(  340 168.104 18.4822) " style="fill:none;stroke-width:2;stroke-linecap:butt;stroke-linejoin:round;stroke:rgb(100%,100%,100%);stroke-opacity:0.6;stroke-miterlimit:10;"/>
  <path d="M 161.199219 21.605469 C 160.449219 21.605469 159.871094 21.386719 159.464844 20.949219 C 159.066406 20.511719 158.871094 19.925781 158.871094 19.183594 C 158.871094 18.664062 158.941406 18.152344 159.089844 17.652344 C 159.234375 17.152344 159.449219 16.699219 159.730469 16.292969 C 160.011719 15.878906 160.347656 15.550781 160.746094 15.308594 C 161.140625 15.058594 161.589844 14.933594 162.089844 14.933594 C 162.691406 14.933594 163.144531 15.066406 163.449219 15.324219 C 163.761719 15.585938 163.917969 15.957031 163.917969 16.433594 C 163.917969 16.851562 163.785156 17.230469 163.527344 17.574219 C 163.265625 17.917969 162.859375 18.195312 162.308594 18.402344 C 161.753906 18.601562 161.042969 18.699219 160.167969 18.699219 L 159.964844 18.699219 C 159.953125 18.773438 159.941406 18.851562 159.933594 18.933594 C 159.933594 19.007812 159.933594 19.074219 159.933594 19.136719 C 159.933594 19.628906 160.050781 20.019531 160.292969 20.308594 C 160.53125 20.589844 160.894531 20.730469 161.386719 20.730469 C 161.6875 20.730469 161.972656 20.691406 162.246094 20.605469 C 162.527344 20.511719 162.824219 20.386719 163.136719 20.230469 L 163.136719 21.136719 C 162.832031 21.273438 162.535156 21.386719 162.246094 21.480469 C 161.953125 21.5625 161.605469 21.605469 161.199219 21.605469 Z M 160.121094 17.839844 L 160.199219 17.839844 C 160.675781 17.839844 161.121094 17.800781 161.527344 17.714844 C 161.941406 17.632812 162.269531 17.496094 162.511719 17.308594 C 162.761719 17.113281 162.886719 16.847656 162.886719 16.511719 C 162.886719 16.304688 162.8125 16.136719 162.667969 16.011719 C 162.53125 15.878906 162.316406 15.808594 162.027344 15.808594 C 161.640625 15.808594 161.269531 15.988281 160.917969 16.339844 C 160.5625 16.695312 160.296875 17.195312 160.121094 17.839844 Z M 160.121094 17.839844 " transform=" rotate(  340 168.104 18.4822) " style="fill:none;stroke-width:2;stroke-linecap:butt;stroke-linejoin:round;stroke:rgb(100%,100%,100%);stroke-opacity:0.6;stroke-miterlimit:10;"/>
  <path d="M 164.625 21.480469 L 165.984375 15.042969 L 166.84375 15.042969 L 166.71875 16.230469 L 166.78125 16.230469 C 166.945312 16.011719 167.117188 15.804688 167.296875 15.605469 C 167.484375 15.410156 167.691406 15.246094 167.921875 15.121094 C 168.160156 14.996094 168.429688 14.933594 168.734375 14.933594 C 168.847656 14.933594 168.960938 14.941406 169.078125 14.949219 C 169.203125 14.960938 169.316406 14.980469 169.421875 15.011719 L 169.203125 15.964844 C 168.984375 15.914062 168.78125 15.886719 168.59375 15.886719 C 168.1875 15.886719 167.828125 16.023438 167.515625 16.292969 C 167.203125 16.554688 166.941406 16.886719 166.734375 17.292969 C 166.523438 17.699219 166.378906 18.117188 166.296875 18.542969 L 165.671875 21.480469 Z M 164.625 21.480469 " transform=" rotate(  340 168.104 18.4822) " style="fill:none;stroke-width:2;stroke-linecap:butt;stroke-linejoin:round;stroke:rgb(100%,100%,100%);stroke-opacity:0.6;stroke-miterlimit:10;"/>
  <path d="M 172.664062 21.480469 L 174.476562 12.917969 L 175.554688 12.917969 L 173.929688 20.527344 L 177.226562 20.527344 L 177.023438 21.480469 Z M 172.664062 21.480469 " transform=" rotate(  340 168.104 18.4822) " style="fill:none;stroke-width:2;stroke-linecap:butt;stroke-linejoin:round;stroke:rgb(100%,100%,100%);stroke-opacity:0.6;stroke-miterlimit:10;"/>
  <path d="M 180.226562 21.605469 C 179.714844 21.605469 179.296875 21.417969 178.976562 21.042969 C 178.652344 20.667969 178.492188 20.121094 178.492188 19.402344 C 178.492188 18.808594 178.570312 18.242188 178.726562 17.699219 C 178.882812 17.160156 179.101562 16.683594 179.382812 16.277344 C 179.664062 15.863281 179.992188 15.535156 180.367188 15.292969 C 180.75 15.054688 181.179688 14.933594 181.648438 14.933594 C 182.074219 14.933594 182.417969 15.050781 182.679688 15.277344 C 182.9375 15.496094 183.136719 15.753906 183.273438 16.042969 L 183.320312 16.042969 L 183.710938 15.042969 L 184.507812 15.042969 L 183.148438 21.480469 L 182.304688 21.480469 L 182.460938 20.292969 L 182.414062 20.292969 C 182.140625 20.648438 181.820312 20.957031 181.445312 21.214844 C 181.078125 21.476562 180.671875 21.605469 180.226562 21.605469 Z M 180.570312 20.730469 C 180.871094 20.730469 181.164062 20.621094 181.445312 20.402344 C 181.726562 20.183594 181.980469 19.894531 182.210938 19.527344 C 182.4375 19.152344 182.621094 18.742188 182.757812 18.292969 C 182.820312 18.054688 182.855469 17.839844 182.867188 17.652344 C 182.886719 17.457031 182.898438 17.273438 182.898438 17.105469 C 182.898438 16.730469 182.792969 16.425781 182.585938 16.183594 C 182.386719 15.945312 182.109375 15.824219 181.757812 15.824219 C 181.445312 15.824219 181.152344 15.925781 180.882812 16.121094 C 180.621094 16.308594 180.390625 16.574219 180.195312 16.917969 C 179.996094 17.253906 179.839844 17.636719 179.726562 18.074219 C 179.621094 18.503906 179.570312 18.957031 179.570312 19.433594 C 179.570312 19.863281 179.65625 20.183594 179.835938 20.402344 C 180.011719 20.621094 180.257812 20.730469 180.570312 20.730469 Z M 180.570312 20.730469 " transform=" rotate(  340 168.104 18.4822) " style="fill:none;stroke-width:2;stroke-linecap:butt;stroke-linejoin:round;stroke:rgb(100%,100%,100%);stroke-opacity:0.6;stroke-miterlimit:10;"/>
  <path d="M 185.058594 21.480469 L 186.980469 12.355469 L 188.058594 12.355469 L 187.277344 15.980469 C 187.140625 16.628906 187.019531 17.128906 186.917969 17.480469 C 186.824219 17.824219 186.753906 18.050781 186.714844 18.152344 L 186.730469 18.152344 L 189.777344 15.042969 L 191.027344 15.042969 L 188.277344 17.808594 L 189.980469 21.480469 L 188.824219 21.480469 L 187.464844 18.464844 L 186.605469 19.152344 L 186.121094 21.480469 Z M 185.058594 21.480469 " transform=" rotate(  340 168.104 18.4822) " style="fill:none;stroke-width:2;stroke-linecap:butt;stroke-linejoin:round;stroke:rgb(100%,100%,100%);stroke-opacity:0.6;stroke-miterlimit:10;"/>
  <path d="M 193.335938 21.605469 C 192.585938 21.605469 192.007812 21.386719 191.601562 20.949219 C 191.203125 20.511719 191.007812 19.925781 191.007812 19.183594 C 191.007812 18.664062 191.078125 18.152344 191.226562 17.652344 C 191.371094 17.152344 191.585938 16.699219 191.867188 16.292969 C 192.148438 15.878906 192.484375 15.550781 192.882812 15.308594 C 193.277344 15.058594 193.726562 14.933594 194.226562 14.933594 C 194.828125 14.933594 195.28125 15.066406 195.585938 15.324219 C 195.898438 15.585938 196.054688 15.957031 196.054688 16.433594 C 196.054688 16.851562 195.921875 17.230469 195.664062 17.574219 C 195.402344 17.917969 194.996094 18.195312 194.445312 18.402344 C 193.890625 18.601562 193.179688 18.699219 192.304688 18.699219 L 192.101562 18.699219 C 192.089844 18.773438 192.078125 18.851562 192.070312 18.933594 C 192.070312 19.007812 192.070312 19.074219 192.070312 19.136719 C 192.070312 19.628906 192.1875 20.019531 192.429688 20.308594 C 192.667969 20.589844 193.03125 20.730469 193.523438 20.730469 C 193.824219 20.730469 194.109375 20.691406 194.382812 20.605469 C 194.664062 20.511719 194.960938 20.386719 195.273438 20.230469 L 195.273438 21.136719 C 194.96875 21.273438 194.671875 21.386719 194.382812 21.480469 C 194.089844 21.5625 193.742188 21.605469 193.335938 21.605469 Z M 192.257812 17.839844 L 192.335938 17.839844 C 192.8125 17.839844 193.257812 17.800781 193.664062 17.714844 C 194.078125 17.632812 194.40625 17.496094 194.648438 17.308594 C 194.898438 17.113281 195.023438 16.847656 195.023438 16.511719 C 195.023438 16.304688 194.949219 16.136719 194.804688 16.011719 C 194.667969 15.878906 194.453125 15.808594 194.164062 15.808594 C 193.777344 15.808594 193.40625 15.988281 193.054688 16.339844 C 192.699219 16.695312 192.433594 17.195312 192.257812 17.839844 Z M 192.257812 17.839844 " transform=" rotate(  340 168.104 18.4822) " style="fill:none;stroke-width:2;stroke-linecap:butt;stroke-linejoin:round;stroke:rgb(100%,100%,100%);stroke-opacity:0.6;stroke-miterlimit:10;"/>
  <g transform=" rotate(  340 168.104 18.4822) " style="fill:rgb(30.196078%,50.196078%,70.196078%);fill-opacity:1;">
   <use xlink:href="#glyph0-1" y="21.482234" x="138.578443"/>
   <use xlink:href="#glyph0-2" y="21.482234" x="145.778443"/>
   <use xlink:href="#glyph0-3" y="21.482234" x="152.594443"/>
   <use xlink:href="#glyph0-4" y="21.482234" x="158.294443"/>
   <use xlink:href="#glyph0-5" y="21.482234" x="164.282443"/>
   <use xlink:href="#glyph0-6" y="21.482234" x="169.058443"/>
   <use xlink:href="#glyph0-7" y="21.482234" x="172.178443"/>
   <use xlink:href="#glyph0-2" y="21.482234" x="177.914443"/>
   <use xlink:href="#glyph0-3" y="21.482234" x="184.730443"/>
   <use xlink:href="#glyph0-4" y="21.482234" x="190.430443"/>
  </g>
 </g>
</svg>

<svg xmlns="http://www.w3.org/2000/svg" xmlns:xlink="http://www.w3.org/1999/xlink" viewBox="0 0 497 279"> <defs overflow="visible" style="stroke:none">  <path id="f" d="m.5 0 1.8-8.6h1L1.9-1H5l-.2 1Zm0 0"/>  <path id="e" d="m.3 0 1.4-6.4h.9l-.2 1.2h.1A9 9 0 0 1 3-6l.6-.4.9-.1H5v1h-.7c-.3-.1-.8-.1-1 .2-.5.4-.7.7-.9 1.1-.2.4-.4.8-.4 1.3L1.4 0Zm0 0"/>  <path id="d" d="M3 .1C2.1.1 1.5 0 1.1-.5.8-1 .6-1.5.6-2.3c0-.5 0-1 .2-1.5.1-.5.4-1 .6-1.4l1-1c.5-.2 1-.3 1.5-.3s.9 0 1.3.3c.3.3.4.7.4 1.2 0 .4-.1.8-.4 1-.2.5-.6.8-1.2 1l-2 .1h-.3v.6c-.1.3-.1.8.3 1.1.2.3.6.4 1 .4h1l.8-.5v1c-.3 0-.6.2-.8.3L3 .1ZM1.7-3.6H2c.4 0 1 0 1.2-.2.4 0 .8-.2 1-.4.3-.2.4-.4.4-.8 0-.2 0-.3-.2-.5l-.7-.2c-.4 0-.7.2-1 .7-.5.2-.7.7-1 1.4Zm.1 0"/>  <path id="c" d="m.3 0 2-9.1h1l-.8 3.6A22.2 22.2 0 0 1 2-3.3l3-3.1h1.3L3.5-3.7 5.3 0H4L2.7-3l-.7.7L1.4 0Zm0 0"/>  <path id="b" d="M2.3.1c-.5 0-1-.1-1.2-.5-.4-.4-.5-1-.5-1.7 0-.6 0-1.1.2-1.7l.7-1.4 1-1c.3-.2.8-.3 1.2-.3.5 0 .8 0 1 .3l.8.8.3-1h.8L5.2 0h-.8l.1-1.2-1 1a2 2 0 0 1-1.2.2Zm.4-.8c.3-.1.5-.3.8-.4.3-.2.6-.5.8-.9l.5-1.2.2-.6v-.6c0-.3-.1-.6-.3-.9-.2-.2-.5-.4-.9-.4-.3 0-.6.1-.8.3l-.7.8-.5 1.2L1.7-2c0 .4 0 .7.2 1 .2 0 .4.2.8.2Zm0-.1"/>  <path id="a" d="m.5 0 1.8-8.6h2.2c.8 0 1.5.2 1.9.6.4.2.6.7.6 1.4 0 .6-.1 1-.5 1.4-.3.4-.8.6-1.4.7a2 2 0 0 1 1 .8c.3.2.4.6.4 1 0 .7-.1 1.1-.4 1.5-.3.4-.7.7-1.2.9-.5.2-.9.3-1.7.3Zm2.1-5H5l.7-.7c.2-.1.3-.3.3-.8 0-.3-.2-.5-.4-.8-.2-.2-.6-.3-1.2-.3H3.2Zm-.9 4h1.7c.5 0 1.1 0 1.4-.3.4-.4.6-.7.6-1.4 0-.3-.1-.7-.4-1-.2-.1-.7-.3-1.3-.3H2.5Zm.1 0"/>  <path d="M1.1 0v-8.6h5V0Zm.6-.6h3.8V-8H1.7Zm0 0"/> </defs> <image xlink:href="svg/9/98_29.jpg" width="497" height="279"/> <path d="m139 21.5 2-8.6h2c1 .1 1.5.2 2 .5.4.3.6.8.6 1.5 0 .6-.1 1-.5 1.4-.3.4-.8.7-1.4.7a2 2 0 0 1 1 .8c.3.1.3.5.3 1 0 .6-.1 1.2-.3 1.5-.3.4-.7.7-1.2.9-.5.2-1 .3-1.7.3Zm2.3-5h2.3l.7-.6.2-.9c0-.4 0-.6-.3-.8-.3-.3-.7-.4-1.2-.4h-1.2Zm-1 4.1h1.5c.7 0 1.2 0 1.6-.4.4-.4.6-.8.6-1.4 0-.4-.2-.7-.4-1-.3-.1-.7-.3-1.3-.3H141Zm7.7 1c-.3 0-.7-.2-1.1-.6-.4-.3-.5-.9-.5-1.6 0-.6 0-1.2.2-1.7.1-.5.4-1 .6-1.4l1-1c.4-.3.8-.4 1.3-.4.5.1.8.2 1 .4l.6.7.6-1h.7l-1.4 6.5h-.8l.1-1.2-1 1a2 2 0 0 1-1.2.2Zm.5-.9c.2 0 .5 0 .9-.3l.6-.9.6-1.2.1-.6V17c.1-.3.1-.6-.2-.9-.3-.1-.5-.2-.9-.2l-.9.2-.6.9-.5 1.1-.2 1.3c0 .6.1.8.3 1 .2.2.4.3.7.3Zm4.5.8 1.7-9.1h1.3l-.9 3.6a22.2 22.2 0 0 1-.5 2.2l3-3.2h1.4l-3 2.8 1.8 3.7h-1.1l-1.4-3-.8.7-.5 2.3Zm8.2.1c-.8 0-1.3-.2-1.7-.6-.5-.5-.6-1-.6-1.8 0-.5 0-1 .1-1.5.2-.5.4-1 .7-1.4l1-1c.4-.2.9-.3 1.4-.3.6 0 .9.1 1.3.3.4.3.6.7.6 1.1 0 .6-.2.8-.5 1.2-.2.3-.5.6-1.2.8-.5.2-1.3.3-2.1.3h-.2v.4c0 .5 0 1 .2 1.2.3.3.7.4 1.1.4h1.1l.6-.6v1.1l-.8.2-1 .2Zm-1-3.8h1.3l1-.6c.3-.1.5-.4.5-.7-.1-.2-.1-.4-.3-.5l-.7-.2c-.4 0-.7.2-1 .5-.5.4-.8.9-1 1.5Zm4.4 3.7L166 15h.8v1.2a9 9 0 0 1 .5-.6l.6-.5.8-.1h.7l-.2 1-.6-.1c-.4 0-.8.1-1 .4-.5.3-.8.6-1 1l-.3 1.2-.6 3Zm8.1 0 1.8-8.6h1l-1.5 7.6h3.2l-.2 1Zm7.5.1c-.5 0-.9-.2-1.2-.6-.3-.3-.5-.9-.5-1.6 0-.6 0-1.2.2-1.7l.7-1.4c.3-.4.6-.8 1-1 .3-.3.8-.4 1.2-.4.5.1.8.2 1 .4l.8.7.3-1h.8l-1.4 6.5h-.8l.2-1.2-1.1 1a2 2 0 0 1-1.3.2Zm.4-.9c.3 0 .6 0 .8-.3.3-.2.6-.5.8-.9l.6-1.2v-.6l.2-.7c-.1-.3-.2-.6-.4-.9-.2-.1-.6-.2-.8-.2-.4-.1-.6.1-1 .2l-.5.9-.6 1.1-.1 1.3c0 .6 0 .8.2 1 .2.2.5.3.8.3Zm4.4.8 2-9.1h1l-.6 3.6a22.2 22.2 0 0 1-.7 2.2l3-3.2h1.3l-2.7 2.8 1.7 3.7h-1.2l-1.3-3-.9.7-.5 2.3Zm8.3.1c-.7 0-1.3-.2-1.7-.6-.4-.5-.6-1-.6-1.8 0-.5 0-1 .2-1.5l.8-1.4c0-.4.5-.7.9-1 .4-.2.8-.3 1.3-.3.6 0 1 .1 1.4.3.3.3.4.7.4 1.1 0 .6-.1.8-.3 1.2-.3.3-.7.6-1.3.8-.4.2-1.2.3-2.1.3h-.2v.4c-.1.5-.1 1 .3 1.2.3.3.6.4 1.1.4h.9l.9-.6v1.1l-1 .2-.9.2Zm-1-3.8h1.4l1-.6c.1-.1.3-.4.3-.7 0-.2 0-.4-.2-.5l-.6-.2c-.4 0-.8.2-1.2.5-.3.4-.6.9-.7 1.5Zm0 0" style="fill:none;stroke-width:2;stroke-linecap:butt;stroke-linejoin:round;stroke:#fff;stroke-opacity:.6;stroke-miterlimit:10" transform=" rotate(  340 168.104 18.4822) "/> <g style="fill:#4d80b3;fill-opacity:1" transform=" rotate(  340 168.104 18.4822) ">  <use xlink:href="#a" x="138.6" y="21.5"/>  <use xlink:href="#b" x="145.8" y="21.5"/>  <use xlink:href="#c" x="152.6" y="21.5"/>  <use xlink:href="#d" x="158.3" y="21.5"/>  <use xlink:href="#e" x="164.3" y="21.5"/>  <use xlink:href="#glyph0-6" x="169.1" y="21.5"/>  <use xlink:href="#f" x="172.2" y="21.5"/>  <use xlink:href="#b" x="177.9" y="21.5"/>  <use xlink:href="#c" x="184.7" y="21.5"/>  <use xlink:href="#d" x="190.4" y="21.5"/> </g></svg>
